packages/netlify-cms-ui-default/src/Icon/images/link.svg

<svg height="20" viewBox="0 0 22 20" width="22" xmlns="http://www.w3.org/2000/svg"><path d="m113.682856 16.3147066-1.2558-1.2522577 1.253144-1.2540289c.696092-.6969779.690778-1.8128511 0-2.5036297-.331308-.333308-.781859-.5207277-1.251815-.5207277s-.920508.1874197-1.251815.5207277l-2.506287 2.5062865c-.333089.3314239-.520357.7819318-.520357 1.2518149s.187268.920391.520357 1.2518149l-1.249601 1.2469439-.625243-.6252432c-1.037917-1.0367623-1.039106-2.7185436-.002657-3.756773l3.135073-3.1359578c1.381557-1.38155725 3.625702-1.37270112 5.007259.0088561 1.381489 1.3827959 1.382678 3.6229983.002657 5.0072595zm-9.393703-.6261289v-.0026568l1.252257 1.2487152-1.252257 1.2566857c-.333143.3315754-.520433.7822298-.520433 1.2522577s.18729.9206823.520433 1.2522577c.696978.6952066 1.812851.6907786 2.503629 0l2.506287-2.5062866c.696978-.6969779.690779-1.8128511 0-2.5036297l1.248715-1.2487152.622587.6243576c.499437.4971794.78065 1.1725691.781646 1.8772847.000997.7047155-.278304 1.380898-.776333 1.8794883l-3.135072 3.1350722c-1.382643 1.3805908-3.622541 1.3794015-5.003717-.0026568-1.381489-1.3827959-1.382678-3.6229983-.002657-5.0072595z" fill="#7a8291" transform="translate(-99 -6)"/></svg>

<svg xmlns="http://www.w3.org/2000/svg" width="22" height="20" viewBox="0 0 22 20"><path fill="#7A8291" d="M113.682856,16.3147066 L112.427056,15.0624489 L113.6802,13.80842 C114.376292,13.1114421 114.370978,11.9955689 113.6802,11.3047903 C113.348892,10.9714823 112.898341,10.7840626 112.428385,10.7840626 C111.958429,10.7840626 111.507877,10.9714823 111.17657,11.3047903 L108.670283,13.8110768 C108.337194,14.1425007 108.149926,14.5930086 108.149926,15.0628917 C108.149926,15.5327748 108.337194,15.9832827 108.670283,16.3147066 L107.420682,17.5616505 L106.795439,16.9364073 C105.757522,15.899645 105.756333,14.2178637 106.792782,13.1796343 L109.927855,10.0436765 C111.309412,8.66211925 113.553557,8.67097538 114.935114,10.0525326 C116.316603,11.4353285 116.317792,13.6755309 114.937771,15.0597921 L113.682856,16.3147066 Z M104.289153,15.6885777 L104.289153,15.6885777 L104.289153,15.6859209 L105.54141,16.9346361 L104.289153,18.1913218 C103.95601,18.5228972 103.76872,18.9735516 103.76872,19.4435795 C103.76872,19.9136074 103.95601,20.3642618 104.289153,20.6958372 C104.986131,21.3910438 106.102004,21.3866158 106.792782,20.6958372 L109.299069,18.1895506 C109.996047,17.4925727 109.989848,16.3766995 109.299069,15.6859209 L110.547784,14.4372057 L111.170371,15.0615633 C111.669808,15.5587427 111.951021,16.2341324 111.952017,16.938848 C111.953014,17.6435635 111.673713,18.319746 111.175684,18.8183363 L108.040612,21.9534085 C106.657969,23.3339993 104.418071,23.33281 103.036895,21.9507517 C101.655406,20.5679558 101.654217,18.3277534 103.034238,16.9434922 L104.289153,15.6885777 Z" transform="translate(-99 -6)"/></svg>
